svgs/thin/socks.svg

<svg xmlns="http://www.w3.org/2000/svg" viewBox="0 0 512 512"><!--! Font Awesome Pro 6.6.0 by @fontawesome - https://fontawesome.com License - https://fontawesome.com/license (Commercial License) Copyright 2024 Fonticons, Inc. --><path d="M168.4 461.7c2 5.1 4.2 10.1 6.8 14.9l-21.6 16.2C137 505.3 116.8 512 96 512c-53 0-96-43-96-96c0-30.2 14.2-58.7 38.4-76.8l64-48C118.5 279.1 128 260.1 128 240l0-128 0-8 0-8 0-48c0-26.5 21.5-48 48-48l96 0c9.9 0 19 3 26.7 8.1c-2.7 4.7-5 9.7-6.7 14.9c-5.5-4.4-12.4-7-20-7l-96 0c-17.7 0-32 14.3-32 32l0 48 144 0 0 16-144 0 0 128c0 25.2-11.9 48.9-32 64L48 352c-20.1 15.1-32 38.8-32 64c0 44.2 35.8 80 80 80c17.3 0 34.2-5.6 48-16l24.4-18.3zM336 112l0 128c0 25.2-11.9 48.9-32 64l-64 48c-20.1 15.1-32 38.8-32 64c0 44.2 35.8 80 80 80c17.3 0 34.2-5.6 48-16l115.2-86.4C479.4 372.4 496 339.3 496 304l0-192-160 0zm0-16l160 0 0-48c0-17.7-14.3-32-32-32l-96 0c-17.7 0-32 14.3-32 32l0 48zM512 48l0 48 0 8 0 8 0 192c0 40.3-19 78.2-51.2 102.4L345.6 492.8C329 505.3 308.8 512 288 512c-53 0-96-43-96-96c0-30.2 14.2-58.7 38.4-76.8l64-48C310.5 279.1 320 260.1 320 240l0-128 0-8 0-8 0-48c0-26.5 21.5-48 48-48l96 0c26.5 0 48 21.5 48 48z"/></svg>

<svg xmlns="http://www.w3.org/2000/svg" viewBox="0 0 512 512"><!--! Font Awesome Pro 6.4.0 by @fontawesome - https://fontawesome.com License - https://fontawesome.com/license (Commercial License) Copyright 2023 Fonticons, Inc. --><path d="M168.4 461.7c2 5.1 4.2 10.1 6.8 14.9l-21.6 16.2C137 505.3 116.8 512 96 512c-53 0-96-43-96-96c0-30.2 14.2-58.7 38.4-76.8l64-48C118.5 279.1 128 260.1 128 240V112v-8V96 48c0-26.5 21.5-48 48-48h96c9.9 0 19 3 26.7 8.1c-2.7 4.7-5 9.7-6.7 14.9c-5.5-4.4-12.4-7-20-7H176c-17.7 0-32 14.3-32 32V96H288v16H144V240c0 25.2-11.9 48.9-32 64L48 352c-20.1 15.1-32 38.8-32 64c0 44.2 35.8 80 80 80c17.3 0 34.2-5.6 48-16l24.4-18.3zM336 112V240c0 25.2-11.9 48.9-32 64l-64 48c-20.1 15.1-32 38.8-32 64c0 44.2 35.8 80 80 80c17.3 0 34.2-5.6 48-16l115.2-86.4C479.4 372.4 496 339.3 496 304V112H336zm0-16H496V48c0-17.7-14.3-32-32-32H368c-17.7 0-32 14.3-32 32V96zM512 48V96v8 8V304c0 40.3-19 78.2-51.2 102.4L345.6 492.8C329 505.3 308.8 512 288 512c-53 0-96-43-96-96c0-30.2 14.2-58.7 38.4-76.8l64-48C310.5 279.1 320 260.1 320 240V112v-8V96 48c0-26.5 21.5-48 48-48h96c26.5 0 48 21.5 48 48z"/></svg>
